X:290
T: Frogs & Snakes of Galway
T: Mike Connolly's
C: BB
Q: 1/8=330
L: 1/8
M: C|
R: hornpipe
K: D
e|"D"f2 ed "Bm"BAFB|"D"ABAF "Em7"EDEF|"D"f2 ed "Bm"BAFA|"D"(3Bcd AF "A"E4|
"D"f2 ed "Bm"BAFB|"D"ABAF "Em7"EDEF|"G"GFED "D"defd|"A"AFEF "D"D3 :|
z|"Bm"FABA FABA|"Em"GBeB GBeB|"A"Acef "A7"gfef|"G"gfed "A7"cBAG|
"Bm"FABA FABA|"Em"GBeB GBeB|"A"Acea "G"gfef|"A7"gece "D"d3 :|

%%%%%%%%%%%%%%%%%%%%%%%%%%%%%%%%%%%%%%%%%%%

